!!!OTL: Graf und Nonne (Die Nonne) Wer zapfet uns ein Glaeschen ein,
!!!ARE: Europa, Mitteleuropa, Deutschland (), Brandenburg, Uckermark, Gramzow
!!!YOR: 8, S. 290
!!    1844 aufgezeichnet
!!!SCT: Q1155F.
!!!YEM: Copyright 1995, estate of Helmut Schaffrath.
**kern
*ICvox
*Ivox
*M4/4
*k[f#]
*G:
{4d
=1
4.g
8d
4B
4d
=2
4.g
8f#
4g}
{4b
=3
4.a
8f#
8a
8g
4e
=4
2d
4r}
{8g
8b
=5
4a
4g
4a
4dd
=6
4cc
8a
8cc
4b}
{4a
=7
2g
2f#
=8
2g
4r}
==
!!!AGN: Trink - Lied
!! Melodievergleich zu Q0155I., anderes Lied.
!!!ONB: ESAC (Essen Associative Code) Database: BALLADE
!!!AMT: simple quadruple
!!!AIN: vox
!!!EED: Helmut Schaffrath
!!!EEV: 1.0
*-
